icon-svg/lr-defender.svg

<svg xmlns="http://www.w3.org/2000/svg" fill="#44739e" viewBox="0 0 24 24"><path d="M21.61 6.706h-.891a.383.383 0 0 0-.39.376v1.612a.383.383 0 0 0 .39.376h.336v.245l-1.088.156v-.079a.328.328 0 0 0-.335-.322h-1.99a2.2 2.2 0 0 1 .516.326 1.36 1.36 0 0 1 .555.962h1.254v-.452l1.219-.435V9.33a.06.06 0 0 0 .007-.03v-.23h.416A.384.384 0 0 0 22 8.694V7.082a.384.384 0 0 0-.39-.376m-17.577 3.2v.452h1.254a1.36 1.36 0 0 1 .555-.958 2.2 2.2 0 0 1 .516-.326h-1.99a.328.328 0 0 0-.335.322v.079l-1.088-.16V9.07h.336a.383.383 0 0 0 .39-.376V7.082a.383.383 0 0 0-.39-.376H2.39a.384.384 0 0 0-.39.376v1.612a.384.384 0 0 0 .39.376h.416v.23a.06.06 0 0 0 .007.03v.141zm7.911-5.872h.111v3.854H19.6V4.034c0-.376-.835-1.127-1.225-1.127H5.621c-.39 0-1.226.751-1.225 1.127v3.854h7.548zm.251.135h7.27v3.585H12.2Zm-.39 3.585h-7.27V4.169h7.27zm5.755 8.691h-7.079a.994.994 0 0 0-1.381 0H6.5a.051.051 0 0 0-.052.051v.8a.049.049 0 0 0 .021.041.743.743 0 0 0 .648.547c.138 0 .226-.238.236-.537h1.5a.979.979 0 0 0 1.876 0h5.978c.01.3.1.537.237.537a.74.74 0 0 0 .647-.547.05.05 0 0 0 .022-.041v-.8a.051.051 0 0 0-.053-.051m.352 4.225a.431.431 0 0 0 .439.423h1.783a.431.431 0 0 0 .439-.423v-4.5h-2.661zm-14.429 0a.431.431 0 0 0 .439.423h1.783a.431.431 0 0 0 .439-.423v-4.5H3.483Zm17.288-5.639H3.285a.264.264 0 0 0-.268.259v.5a.264.264 0 0 0 .268.259h17.486a.264.264 0 0 0 .268-.259v-.5a.264.264 0 0 0-.268-.259m-2.079-2.265a1.01.973 0 0 1-1.01.973 1.01.973 0 0 1-1.01-.973 1.01.973 0 0 1 1.01-.973 1.01.973 0 0 1 1.01.973M8.288 11.094h7.423v.362H8.288Zm0 2.032h7.423v.362H8.288Zm0-1.016h7.423v.362H8.288Zm11.462-.15a.369.356 0 0 1-.369.356.369.356 0 0 1-.369-.356.369.356 0 0 1 .369-.356.369.356 0 0 1 .369.356M4.618 11.6a.356.356 0 1 0 .369.356.364.364 0 0 0-.369-.356m3.67 2.542h7.423v.362H8.288Zm-.961-1.376a1.01.973 0 0 1-1.01.973 1.01.973 0 0 1-1.01-.973 1.01.973 0 0 1 1.01-.973 1.01.973 0 0 1 1.01.973m-2.709.611a.356.356 0 1 0 .369.355.363.363 0 0 0-.369-.355m14.861 1.382h1.372v-2.745a1.362 1.362 0 0 0-1.372-1.349H4.521a1.362 1.362 0 0 0-1.372 1.349v2.742h4.819v-.926h8.064v.926zm-13.162-.711a1.347 1.347 0 0 1-1.028-.47.66.66 0 0 1 .019.154.69.69 0 1 1-.69-.664.705.705 0 0 1 .464.172 1.23 1.23 0 0 1-.095-.474 1.27 1.27 0 0 1 .028-.263.7.7 0 0 1-.4.122.665.665 0 1 1 .689-.693 1.35 1.35 0 0 1 1.01-.449 1.283 1.283 0 1 1 0 2.565zm11.365-2.565a1.35 1.35 0 0 1 1.01.449.69.69 0 1 1 .689.693.7.7 0 0 1-.4-.122 1.27 1.27 0 0 1 .028.263 1.23 1.23 0 0 1-.1.474.7.7 0 0 1 .463-.172.665.665 0 1 1-.689.664.66.66 0 0 1 .018-.154 1.346 1.346 0 0 1-1.028.47 1.283 1.283 0 1 1 0-2.565zm-9.714-.7h8.064v.981H7.968Zm0 1.016h8.064v.98H7.968Zm0 2v-.98h8.064v.98zm11.413.289a.356.356 0 1 0-.368-.356.363.363 0 0 0 .368.356M6.791 9.07a1.61 1.61 0 0 0-.876.406 1.277 1.277 0 0 0-.517.881H18.6a1.277 1.277 0 0 0-.517-.881 1.61 1.61 0 0 0-.876-.406Zm-2.535-.094h15.488a.213.213 0 0 0 .216-.209v-.429a.213.213 0 0 0-.216-.209H4.256a.213.213 0 0 0-.216.209v.429a.213.213 0 0 0 .216.209m.1-.537h15.283v.228H4.361Z"/></svg>

<?xml version="1.0" encoding="UTF-8"?>
<svg width="24px" fill="#44739e" height="24px" viewBox="0 0 24 24" version="1.1" xmlns="http://www.w3.org/2000/svg" xmlns:xlink="http://www.w3.org/1999/xlink">
            <path d="m 21.61,6.706 h -0.891 a 0.383,0.383 0 0 0 -0.39,0.376 v 1.612 a 0.383,0.383 0 0 0 0.39,0.376 h 0.336 V 9.315 L 19.967,9.471 V 9.392 A 0.328,0.328 0 0 0 19.632,9.07 h -1.99 a 2.191,2.191 0 0 1 0.516,0.326 1.36,1.36 0 0 1 0.555,0.962 h 1.254 V 9.906 L 21.186,9.471 V 9.33 A 0.06,0.06 0 0 0 21.193,9.3 V 9.07 h 0.416 A 0.384,0.384 0 0 0 22,8.694 V 7.082 A 0.384,0.384 0 0 0 21.61,6.706 Z m -17.577,3.2 v 0.452 H 5.287 A 1.36,1.36 0 0 1 5.842,9.4 2.191,2.191 0 0 1 6.358,9.074 H 4.368 A 0.328,0.328 0 0 0 4.033,9.396 V 9.475 L 2.945,9.315 V 9.07 H 3.281 A 0.383,0.383 0 0 0 3.671,8.694 V 7.082 A 0.383,0.383 0 0 0 3.281,6.706 H 2.39 A 0.384,0.384 0 0 0 2,7.082 V 8.694 A 0.384,0.384 0 0 0 2.39,9.07 H 2.806 V 9.3 a 0.06,0.06 0 0 0 0.007,0.03 v 0.141 z m 7.911,-5.872 h 0.111 V 7.888 H 19.6 v -3.854 0 C 19.6,3.658 18.765,2.907 18.375,2.907 H 5.621 c -0.39,0 -1.226,0.751 -1.225,1.127 v 3.854 h 7.548 z m 0.251,0.135 h 7.27 V 7.754 H 12.2 Z m -0.39,3.585 H 4.535 V 4.169 h 7.27 z m 5.755,8.691 h -7.079 a 0.994,0.994 0 0 0 -1.381,0 H 6.5 a 0.051,0.051 0 0 0 -0.052,0.051 v 0.8 a 0.049,0.049 0 0 0 0.021,0.041 0.743,0.743 0 0 0 0.648,0.547 c 0.138,0 0.226,-0.238 0.236,-0.537 h 1.5 a 0.979,0.979 0 0 0 1.876,0 h 5.978 c 0.01,0.3 0.1,0.537 0.237,0.537 a 0.74,0.74 0 0 0 0.647,-0.547 0.05,0.05 0 0 0 0.022,-0.041 v -0.8 A 0.051,0.051 0 0 0 17.56,16.445 Z m 0.352,4.225 a 0.431,0.431 0 0 0 0.439,0.423 h 1.783 a 0.431,0.431 0 0 0 0.439,-0.423 v -4.5 h -2.661 z m -14.429,0 a 0.431,0.431 0 0 0 0.439,0.423 H 5.705 A 0.431,0.431 0 0 0 6.144,20.67 v -4.5 H 3.483 Z M 20.771,15.031 H 3.285 A 0.264,0.264 0 0 0 3.017,15.29 v 0.5 a 0.264,0.264 0 0 0 0.268,0.259 h 17.486 a 0.264,0.264 0 0 0 0.268,-0.259 v -0.5 a 0.264,0.264 0 0 0 -0.268,-0.259 z m -2.079001,-2.265 a 1.01,0.97299999 0 0 1 -1.01,0.973 1.01,0.97299999 0 0 1 -1.01,-0.973 1.01,0.97299999 0 0 1 1.01,-0.973 1.01,0.97299999 0 0 1 1.01,0.973 z M 8.2880001,11.094 H 15.711 v 0.362 H 8.2880001 Z m 0,2.032 H 15.711 v 0.362 H 8.2880001 Z m 0,-1.016 H 15.711 v 0.362 H 8.2880001 Z M 19.750001,11.96 a 0.36899999,0.35600001 0 0 1 -0.369,0.356 0.36899999,0.35600001 0 0 1 -0.369,-0.356 0.36899999,0.35600001 0 0 1 0.369,-0.356 0.36899999,0.35600001 0 0 1 0.369,0.356 z M 4.618,11.6 A 0.356,0.356 0 1 0 4.987,11.956 0.364,0.364 0 0 0 4.618,11.6 Z m 3.6700001,2.542 H 15.711 v 0.362 H 8.2880001 Z M 7.3269999,12.766 a 1.01,0.97299999 0 0 1 -1.01,0.973 1.01,0.97299999 0 0 1 -1.01,-0.973 1.01,0.97299999 0 0 1 1.01,-0.973 1.01,0.97299999 0 0 1 1.01,0.973 z M 4.618,13.377 a 0.356,0.356 0 1 0 0.369,0.355 0.363,0.363 0 0 0 -0.369,-0.355 z m 14.861,1.382 c 0.031,0 0.061,0 0.092,0 h 1.28 V 12.014 A 1.362,1.362 0 0 0 19.479,10.665 H 4.521 a 1.362,1.362 0 0 0 -1.372,1.349 v 2.742 h 1.269 0.1 3.45 V 13.83 h 8.064 v 0.926 z M 6.317,14.048 a 1.347,1.347 0 0 1 -1.028,-0.47 0.656,0.656 0 0 1 0.019,0.154 0.69,0.69 0 1 1 -0.69,-0.664 0.705,0.705 0 0 1 0.464,0.172 1.23,1.23 0 0 1 -0.095,-0.474 1.269,1.269 0 0 1 0.028,-0.263 0.7,0.7 0 0 1 -0.4,0.122 0.665,0.665 0 1 1 0.689,-0.693 1.351,1.351 0 0 1 1.01,-0.449 1.283,1.283 0 1 1 0,2.565 z m 11.365,-2.565 a 1.35,1.35 0 0 1 1.01,0.449 0.69,0.69 0 1 1 0.689,0.693 0.7,0.7 0 0 1 -0.4,-0.122 1.269,1.269 0 0 1 0.028,0.263 1.23,1.23 0 0 1 -0.1,0.474 0.7,0.7 0 0 1 0.463,-0.172 0.665,0.665 0 1 1 -0.689,0.664 0.655,0.655 0 0 1 0.018,-0.154 1.346,1.346 0 0 1 -1.028,0.47 1.283,1.283 0 1 1 0,-2.565 z m -9.714,-0.7 h 8.064 v 0.981 H 7.968 Z m 0,1.016 h 8.064 v 0.98 H 7.968 Z m 0,2 v -0.98 h 8.064 v 0.98 z m 11.413,0.289 a 0.356,0.356 0 1 0 -0.368,-0.356 0.363,0.363 0 0 0 0.368,0.356 z M 6.791,9.07 v 0 A 1.612,1.612 0 0 0 5.915,9.476 1.277,1.277 0 0 0 5.398,10.357 H 18.6 A 1.277,1.277 0 0 0 18.083,9.476 1.612,1.612 0 0 0 17.207,9.07 Z M 4.256,8.976 H 19.744 A 0.213,0.213 0 0 0 19.96,8.767 V 8.338 A 0.213,0.213 0 0 0 19.744,8.129 H 4.256 A 0.213,0.213 0 0 0 4.04,8.338 v 0.429 a 0.213,0.213 0 0 0 0.216,0.209 z m 0.1,-0.537 H 19.639 V 8.667 H 4.361 Z"/>

</svg>
